X:1
T:Title
C:Composer
L:1/8
M:4/4
K:Bb
V:1 treble nm="Piano" snm="Pno."
V:1
 d>c B>c d>e f>e | (d7/2 c/) B>d c>B | A4 A>c B>A | G2 z2 z4 | d>c B>c d>e f>e | (d7/2 c/) B2 B2 | %6
w: Tous ces fiers en- fants- * de la|Gau- * le, Al- laient sans|trè- ve et sans re-|pos;|A- vec leurs fu- sils- * sur l'é-|pau- * le, Cou-|
w: Pour nous bat- tre ils é- taient cent|mil- * le, À- * leur|tête ils a- vaient des|rois!|Le * gé- né- ral vieil- lard dé-|bi- * le Fai-|
w: Le choc fut sem- blable- * à la|fou- * dre, Ce fut- *|un com- bat de gé-|ants,|I- vres de gloire i- * vres de|pou- * dre, Pour|
w: Le nombre eut rai- son- * du cou-|ra- * ge, Un sol- dat|res- tait * \-Le der-|nier!|Il se dé- fen- dit- * a- vec|ra- * ge, Mais|
 f>d B>F"^rit." d7/2 c/ | B2 z2 z2 z B | e3 e edce | d4 dBAB | c2 c2{/e} d3 c | B4 z2 z B | %12
w: rage au coeur et sac au|dos! La|gloire é- tait leur nour- ri-|tu- re, Ils é- taient|sans pain sans sou-|liers, La|
w: blit pour la pre- miè- re|fois Vo-|yant cer- tai- ne la dé-|fai- te, il ré- u-|nit tous ces sol-|dats, Puis|
w: mou- rir ils ser- raient les|rangs! Le|ré- gi- ment par la mi-|trail- le, É- tait a-|sail- li de par-|tout; Pour-|
w: bien- tôt fut fait pri- son-|nier. En|vo- yant ce hé- ros fa-|rou- che L'en- ne- mi|pleu- ra sur son|sort; Le|
 e3 e edce | d4 dddd |"^rit." d2 d2 d2 !fermata!g2 | d6 z2 ||[K:G][M:2/4]"^Energico" G2 A>B | %17
w: nuit ils cou- chaient sur la|du- re A- vec les|sacs pour o- reil-|lers|Le ré- gi-|
w: il fit bat- tre la re-|trait- te, Mais eux, ne|l'é- cou- tè- rent|pas!||
w: tant la vi- van- te mu-|rail- le, Im- pas- si-|ble res- tait de-|bout.||
w: hé- ros prit u- ne car-|tou- che, Ju- ra puis|se don- na la|mort!|Le ré- gi-|
 G>G A>B | G4 | GG AB | c3 c | Bg GA | A2 z2 | z4 | A2 B>c | A>A B>c | A4 | Ae fe | %28
w: ment de Sambre et|Meu-|se Mar- chait tou-|jours au|cri de li- ber-|té,||Cher- chant la|rou- te glo- ri-|eu-|se Qui l'a con-|
w: |||||||||||
w: |||||||||||
w: ment de Sambre et|Meu-|se Re- çu la|mort au|cri de li- ber-|té;||Mais son his-|toi- re glo- ri-|eu-|se Lui don- ne|
 d!>!g !>!d!>!B |({!fermata!A!fermata!B)} !fermata!A7/2 G/ | G2 z2 |] %31
w: duit à l'im- mor-|ta- li-|té!|
w: |||
w: |||
w: droit à l'im- mor-|ta- li-|té!|

